www/assets/icons/closed_caption_off.svg

<svg xmlns="http://www.w3.org/2000/svg" width="24" height="24" viewBox="0 0 24 24" fill='currentColor'><path d="M19.5 5.5v13h-15v-13zM19 4H5a2 2 0 0 0-2 2v12a2 2 0 0 0 2 2h14c1.1 0 2-.9 2-2V6c0-1.1-.9-2-2-2m-8 7H9.5v-.5h-2v3h2V13H11v1c0 .55-.45 1-1 1H7c-.55 0-1-.45-1-1v-4c0-.55.45-1 1-1h3c.55 0 1 .45 1 1zm7 0h-1.5v-.5h-2v3h2V13H18v1c0 .55-.45 1-1 1h-3c-.55 0-1-.45-1-1v-4c0-.55.45-1 1-1h3c.55 0 1 .45 1 1z"/></svg>

<svg width="24" height="24" viewBox="0 0 24 24" xmlns="http://www.w3.org/2000/svg" fill='currentColor'><path d="M19.5 5.5V18.5H4.5V5.5H19.5ZM19 4H5C3.89 4 3 4.9 3 6V18C3 19.1 3.89 20 5 20H19C20.1 20 21 19.1 21 18V6C21 4.9 20.1 4 19 4ZM11 11H9.5V10.5H7.5V13.5H9.5V13H11V14C11 14.55 10.55 15 10 15H7C6.45 15 6 14.55 6 14V10C6 9.45 6.45 9 7 9H10C10.55 9 11 9.45 11 10V11ZM18 11H16.5V10.5H14.5V13.5H16.5V13H18V14C18 14.55 17.55 15 17 15H14C13.45 15 13 14.55 13 14V10C13 9.45 13.45 9 14 9H17C17.55 9 18 9.45 18 10V11Z"/></svg>
